icon-themes/breeze_svg/cmd/32/firstpage.svg

<svg viewBox="0 0 32 32" xmlns="http://www.w3.org/2000/svg"><path d="m16 4-12 12v1h3v10 1h18v-1-10h3v-1l-5-5v-5h-1v4zm0 1.4140625 10.585938 10.5859375h-.273438-2.3125v1 10h-6v-7h-4v7h-6v-10-1h-2.3125-.2734375z" fill="#4d4d4d"/></svg>

<svg xmlns="http://www.w3.org/2000/svg" viewBox="0 0 32 32">
 <path 
     style="fill:#4d4d4d" 
     d="M 16 4 L 4 16 L 4 17 L 7 17 L 7 27 L 7 28 L 25 28 L 25 27 L 25 17 L 28 17 L 28 16 L 23 11 L 23 6 L 22 6 L 22 10 L 16 4 z M 16 5.4140625 L 26.585938 16 L 26.3125 16 L 24 16 L 24 17 L 24 27 L 18 27 L 18 20 L 14 20 L 14 27 L 8 27 L 8 17 L 8 16 L 5.6875 16 L 5.4140625 16 L 16 5.4140625 z "
     />
</svg>
